X: 20426
T: John Forsyth Sellar
R: reel
M: 4/4
K: Gmajor
df|:g2dc BGAB|ca^ga fdef|1 g2dc BcdB|cafdg2d2:|2 gfed ^cdBG|EAFDG2dc||
Bd^cd DGBd|^cdcd DFA=c|BFGA Bcc^d|^cAFAd2dc|
Bd^cd DGBd|^cdcd DFA=c|Bcde gdBG|EAFDG2||

